X: 24229
T: Lord Moira's Welcome To Scotland
R: strathspey
M: 4/4
K: Gmajor
|:gfed efge|dcBA Bc d2|gfed efge|fgaf g4:|
|:gabg af d2|efge dB G2|ABcA dBGB|cAFA G4:|
|:BcdB cd e2|ABcA Bc d2|G2 GB cBAG|FDEF G4:|

